packages/kaspersky-hexa-ui-icons/src/iconsSVGs/16/Delete.svg

<svg width="16" height="16" viewBox="0 0 16 16" fill="none" xmlns="http://www.w3.org/2000/svg">
<path fill-rule="evenodd" clip-rule="evenodd" d="M6.88062 1.0415C5.63797 1.0415 4.63062 2.04886 4.63062 3.2915V3.85394H2.5543C2.19531 3.85394 1.9043 4.14496 1.9043 4.50394C1.9043 4.86293 2.19531 5.15394 2.5543 5.15394H3.28271V12.9665C3.28271 14.0987 4.20053 15.0165 5.33272 15.0165H10.6975C11.8296 15.0165 12.7475 14.0987 12.7475 12.9665V5.15394H13.4756C13.8346 5.15394 14.1256 4.86293 14.1256 4.50394C14.1256 4.14496 13.8346 3.85394 13.4756 3.85394L11.3993 3.85394V3.2915C11.3993 2.04886 10.392 1.0415 9.14935 1.0415H6.88062ZM5.93062 3.2915C5.93062 2.76683 6.35594 2.3415 6.88062 2.3415H9.14935C9.67402 2.3415 10.0993 2.76683 10.0993 3.2915V3.85393H5.93062V3.2915ZM4.58272 5.15394H11.4475V12.9665C11.4475 13.3807 11.1117 13.7165 10.6975 13.7165H5.33272C4.9185 13.7165 4.58272 13.3807 4.58272 12.9665V5.15394Z" fill="black"/>
</svg>

<svg xmlns="http://www.w3.org/2000/svg" width="16" height="16" fill="none" viewBox="0 0 16 16"><path fill="#000" fill-rule="evenodd" d="M6.8806 1.0415c-1.2426 0-2.25 1.0074-2.25 2.25v.5624H2.5543a.65.65 0 0 0 0 1.3h.7284v7.8126c0 1.1322.9178 2.05 2.05 2.05h5.3648c1.1321 0 2.05-.9178 2.05-2.05V5.1539h.7281a.65.65 0 1 0 0-1.3h-2.0763v-.5624c0-1.2426-1.0073-2.25-2.25-2.25zm-.95 2.25a.95.95 0 0 1 .95-.95h2.2688a.95.95 0 0 1 .9499.95v.5624H5.9306zM4.5827 5.1539h6.8648v7.8126a.75.75 0 0 1-.75.75H5.3327a.75.75 0 0 1-.75-.75z"/></svg>
